X:1
T:The Love of God
%%stretchlast false
M:3/4
L:1/8
K:C clef=C1
"^I"[CEGc] [CEGc]3/2 "^ii"[CFGd]/ "^I"[CGce]3 | [Cceg] "^IV²"[Ccfa]3/2 "^I"[Cceg]/ [Cceg]2 [CGce] | [CEcg] [CEcg]3/2 [CGce]/ "^v"[G,Gd]3 | [G,Gdf] "^I²"[G,Gce]3/2 "^V"[G,GBd]/ "^I"[CGce]3 | [CEGc] [CEGc]3/2 "^ii"[CFGd]/ "^I"[CGce]3 | [Cceg] "^IV²"[Ccfa]3/2 "^I"[Cceg]/ [Cceg]2 [CGce] | [CEcg] [CEcg]3/2 [CGce]/ "^V7"[G,FBd]3 | "^IV"[G,Acf] "^I²"[G,Gce]3/2 "^V7"[G,FBd]/ "^I"[CEc]3 | [CEcc'] "^ii7"[DFcc']3/2 "^I¹"[EGcc']/ "^IV"[FAca]3 | [FAcc'] [F,Acc']3/2 "^IV¹"[A,Fcc']/ "^I"[CEcg]2 [CGce] | [CEcg] [CEcg]3/2 "^vi¹"[CEca]/ "^V²"[DGBg]2 [DGBd]2 | "^V7¹"[B,Gdf]2 "^I"[CGce]3 | [CEcc'] "^ii7"[DFcc']3/2 "^I¹"[EGcc']/ "^IV"[FAca]3 | [FAcc'] [F,Acc']3/2 "^IV¹"[A,Fcc']/ "^I"[CEcg]2 [CGce] | [CEcg] [CEcg]3/2 "^vi¹"[CEca]/ "^V"[G,DBg]2 "^V7"[G,FBd]2 | "^iii¹"[G,GBe]2 "^I"[CEc]3 | [CEcc'] "^ii7"[DFcc']3/2 "^I¹"[EGcc']/ "^IV"[FAcc']3 | [FAcc'] "^V"[FGcb]3/2 "^IV"[Fca]/ "^I"[CEcg]2 [CGce] | [CEcg] [CEcg]3/2 "^IV²"[CFca]/ "^V²"[DGBg]2 "^V"[GBd]2 | [G,FBa]2 "^I"[CEcg]3 | [CEcc'] "^ii7"[DFcc']3/2 "^I¹"[EGcc']/ "^IV"[FAcc']3 | [FAcc'] "^V"[FGcb]3/2 "^IV"[Fca]/ "^I"[CEcg]2 [CGce] | [CEcg] [CEcg]3/2 "^vi¹"[CEca]/ "^V"[G,DBg]2 "^V7"[G,FBd]2 | "^iii¹"[G,GBe]2 "^I"[CEc]3 |]
